icons/screen-normal-24.svg

<svg width="24" height="24" viewBox="0 0 24 24" xmlns="http://www.w3.org/2000/svg">
  <path fill-rule="evenodd" clip-rule="evenodd" d="M8.25 3C8.66421 3 9 3.33579 9 3.75V7.25C9 8.2165 8.2165 9 7.25 9H3.75C3.33579 9 3 8.66421 3 8.25C3 7.83579 3.33579 7.5 3.75 7.5H7.25C7.38807 7.5 7.5 7.38807 7.5 7.25V3.75C7.5 3.33579 7.83579 3 8.25 3ZM15.75 3C16.1642 3 16.5 3.33579 16.5 3.75V7.25C16.5 7.38807 16.6119 7.5 16.75 7.5H20.25C20.6642 7.5 21 7.83579 21 8.25C21 8.66421 20.6642 9 20.25 9H16.75C15.7835 9 15 8.2165 15 7.25V3.75C15 3.33579 15.3358 3 15.75 3ZM3 15.75C3 15.3358 3.33579 15 3.75 15H7.25C8.2165 15 9 15.7835 9 16.75V20.25C9 20.6642 8.66421 21 8.25 21C7.83579 21 7.5 20.6642 7.5 20.25V16.75C7.5 16.6119 7.38807 16.5 7.25 16.5H3.75C3.33579 16.5 3 16.1642 3 15.75ZM15 16.75C15 15.7835 15.7835 15 16.75 15H20.25C20.6642 15 21 15.3358 21 15.75C21 16.1642 20.6642 16.5 20.25 16.5H16.75C16.6119 16.5 16.5 16.6119 16.5 16.75V20.25C16.5 20.6642 16.1642 21 15.75 21C15.3358 21 15 20.6642 15 20.25V16.75Z"/>
</svg>

<svg xmlns="http://www.w3.org/2000/svg" width="24" height="24" viewBox="0 0 24 24"><path fill-rule="evenodd" d="M8.25 3a.75.75 0 01.75.75v3.5A1.75 1.75 0 017.25 9h-3.5a.75.75 0 010-1.5h3.5a.25.25 0 00.25-.25v-3.5A.75.75 0 018.25 3zm7.5 0a.75.75 0 01.75.75v3.5c0 .138.112.25.25.25h3.5a.75.75 0 010 1.5h-3.5A1.75 1.75 0 0115 7.25v-3.5a.75.75 0 01.75-.75zM3 15.75a.75.75 0 01.75-.75h3.5c.966 0 1.75.784 1.75 1.75v3.5a.75.75 0 01-1.5 0v-3.5a.25.25 0 00-.25-.25h-3.5a.75.75 0 01-.75-.75zm12 1c0-.966.784-1.75 1.75-1.75h3.5a.75.75 0 010 1.5h-3.5a.25.25 0 00-.25.25v3.5a.75.75 0 01-1.5 0v-3.5z"/></svg>
